X:1
T:Bourree
R:bourree a trois temps
A:France
F:http://simonwascher.info
Z:abc transcription Simon Wascher
M:3/8
L:1/16
K:C
ef | g^fgag=f | e2dcde | fedBdf | edc2ef |
g^fgag=f | e2dcde | fedBdB |1 c4 :|\
                           [2 c4de ||
|:\
dedcBc | dcdefg | fgfedc | Bcd2de |
dedcBc | dcdefg | fgfedB | c4 :|
